images/16758835.svg

<?xml version="1.0" encoding="UTF-8"?>
<svg xmlns="http://www.w3.org/2000/svg" xmlns:xlink="http://www.w3.org/1999/xlink" width="300pt" height="300pt" viewBox="0 0 300 300" version="1.1">
<defs>
<g>
<symbol overflow="visible" id="glyph0-0">
<path style="stroke:none;" d="M 0.453125 1.59375 L 0.453125 -6.34375 L 4.953125 -6.34375 L 4.953125 1.59375 Z M 0.953125 1.09375 L 4.453125 1.09375 L 4.453125 -5.84375 L 0.953125 -5.84375 Z M 0.953125 1.09375 "/>
</symbol>
<symbol overflow="visible" id="glyph0-1">
<path style="stroke:none;" d="M 3.546875 -5.953125 C 2.898438 -5.953125 2.382812 -5.710938 2 -5.234375 C 1.625 -4.753906 1.4375 -4.101562 1.4375 -3.28125 C 1.4375 -2.445312 1.625 -1.789062 2 -1.3125 C 2.382812 -0.832031 2.898438 -0.59375 3.546875 -0.59375 C 4.191406 -0.59375 4.703125 -0.832031 5.078125 -1.3125 C 5.453125 -1.789062 5.640625 -2.445312 5.640625 -3.28125 C 5.640625 -4.101562 5.453125 -4.753906 5.078125 -5.234375 C 4.703125 -5.710938 4.191406 -5.953125 3.546875 -5.953125 Z M 3.546875 -6.6875 C 4.460938 -6.6875 5.195312 -6.375 5.75 -5.75 C 6.300781 -5.132812 6.578125 -4.3125 6.578125 -3.28125 C 6.578125 -2.238281 6.300781 -1.410156 5.75 -0.796875 C 5.195312 -0.179688 4.460938 0.125 3.546875 0.125 C 2.617188 0.125 1.878906 -0.179688 1.328125 -0.796875 C 0.773438 -1.410156 0.5 -2.238281 0.5 -3.28125 C 0.5 -4.3125 0.773438 -5.132812 1.328125 -5.75 C 1.878906 -6.375 2.617188 -6.6875 3.546875 -6.6875 Z M 3.546875 -6.6875 "/>
</symbol>
</g>
</defs>
<g id="surface54957">
<rect x="0" y="0" width="300" height="300" style="fill:rgb(100%,100%,100%);fill-opacity:1;stroke:none;"/>
<path style="fill:none;stroke-width:1.2;stroke-linecap:butt;stroke-linejoin:miter;stroke:rgb(0%,0%,0%);stroke-opacity:1;stroke-miterlimit:10;" d="M 99.316406 212.855469 L 88.640625 194.984375 "/>
<path style="fill:none;stroke-width:1.2;stroke-linecap:butt;stroke-linejoin:miter;stroke:rgb(0%,0%,0%);stroke-opacity:1;stroke-miterlimit:10;" d="M 88.601562 192.539062 L 78.195312 192.695312 "/>
<path style="fill:none;stroke-width:1.2;stroke-linecap:butt;stroke-linejoin:miter;stroke:rgb(100%,0%,0%);stroke-opacity:1;stroke-miterlimit:10;" d="M 78.195312 192.695312 L 67.789062 192.851562 "/>
<path style="fill:none;stroke-width:1.2;stroke-linecap:butt;stroke-linejoin:miter;stroke:rgb(0%,0%,0%);stroke-opacity:1;stroke-miterlimit:10;" d="M 88.675781 197.433594 L 78.269531 197.589844 "/>
<path style="fill:none;stroke-width:1.2;stroke-linecap:butt;stroke-linejoin:miter;stroke:rgb(100%,0%,0%);stroke-opacity:1;stroke-miterlimit:10;" d="M 78.269531 197.589844 L 67.863281 197.746094 "/>
<path style="fill:none;stroke-width:1.2;stroke-linecap:butt;stroke-linejoin:miter;stroke:rgb(0%,0%,0%);stroke-opacity:1;stroke-miterlimit:10;" d="M 88.640625 194.984375 L 93.707031 185.894531 "/>
<path style="fill:none;stroke-width:1.2;stroke-linecap:butt;stroke-linejoin:miter;stroke:rgb(100%,0%,0%);stroke-opacity:1;stroke-miterlimit:10;" d="M 93.707031 185.894531 L 98.777344 176.804688 "/>
<path style=" stroke:none;fill-rule:nonzero;fill:rgb(100%,100%,100%);fill-opacity:1;" d="M 59.824219 189.800781 L 67.824219 189.800781 L 67.824219 200.800781 L 59.824219 200.800781 Z M 59.824219 189.800781 "/>
<g style="fill:rgb(100%,0%,0%);fill-opacity:1;">
  <use xlink:href="#glyph0-1" x="59.824219" y="198.463867"/>
</g>
<path style="fill:none;stroke-width:1.2;stroke-linecap:butt;stroke-linejoin:miter;stroke:rgb(100%,0%,0%);stroke-opacity:1;stroke-miterlimit:10;" d="M 98.777344 176.804688 L 93.4375 167.871094 "/>
<path style="fill:none;stroke-width:1.2;stroke-linecap:butt;stroke-linejoin:miter;stroke:rgb(0%,0%,0%);stroke-opacity:1;stroke-miterlimit:10;" d="M 93.4375 167.871094 L 88.097656 158.933594 "/>
<path style=" stroke:none;fill-rule:nonzero;fill:rgb(100%,100%,100%);fill-opacity:1;" d="M 94.777344 171.304688 L 102.777344 171.304688 L 102.777344 182.304688 L 94.777344 182.304688 Z M 94.777344 171.304688 "/>
<g style="fill:rgb(100%,0%,0%);fill-opacity:1;">
  <use xlink:href="#glyph0-1" x="94.777344" y="179.967773"/>
</g>
<path style="fill:none;stroke-width:1.2;stroke-linecap:butt;stroke-linejoin:miter;stroke:rgb(0%,0%,0%);stroke-opacity:1;stroke-miterlimit:10;" d="M 88.097656 158.933594 L 98.234375 140.753906 "/>
<path style="fill:none;stroke-width:1.2;stroke-linecap:butt;stroke-linejoin:miter;stroke:rgb(0%,0%,0%);stroke-opacity:1;stroke-miterlimit:10;" d="M 98.234375 140.753906 L 87.558594 122.882812 "/>
<path style="fill:none;stroke-width:1.2;stroke-linecap:butt;stroke-linejoin:miter;stroke:rgb(100%,0%,0%);stroke-opacity:1;stroke-miterlimit:10;" d="M 119.050781 140.441406 L 108.640625 140.597656 "/>
<path style="fill:none;stroke-width:1.2;stroke-linecap:butt;stroke-linejoin:miter;stroke:rgb(0%,0%,0%);stroke-opacity:1;stroke-miterlimit:10;" d="M 108.640625 140.597656 L 98.234375 140.753906 "/>
<path style="fill:none;stroke-width:1.2;stroke-linecap:butt;stroke-linejoin:miter;stroke:rgb(0%,0%,0%);stroke-opacity:1;stroke-miterlimit:10;" d="M 87.558594 122.882812 L 97.691406 104.699219 "/>
<path style="fill:none;stroke-width:1.2;stroke-linecap:butt;stroke-linejoin:miter;stroke:rgb(0%,0%,0%);stroke-opacity:1;stroke-miterlimit:10;" d="M 87.558594 122.882812 L 77.148438 123.039062 "/>
<path style="fill:none;stroke-width:1.2;stroke-linecap:butt;stroke-linejoin:miter;stroke:rgb(100%,0%,0%);stroke-opacity:1;stroke-miterlimit:10;" d="M 77.148438 123.039062 L 66.742188 123.195312 "/>
<path style="fill:none;stroke-width:1.2;stroke-linecap:butt;stroke-linejoin:miter;stroke:rgb(0%,0%,0%);stroke-opacity:1;stroke-miterlimit:10;" d="M 97.691406 104.699219 L 118.507812 104.386719 "/>
<path style="fill:none;stroke-width:1.2;stroke-linecap:butt;stroke-linejoin:miter;stroke:rgb(0%,0%,0%);stroke-opacity:1;stroke-miterlimit:10;" d="M 99.847656 109.566406 L 116.5 109.316406 "/>
<path style="fill:none;stroke-width:1.2;stroke-linecap:butt;stroke-linejoin:miter;stroke:rgb(0%,0%,0%);stroke-opacity:1;stroke-miterlimit:10;" d="M 118.507812 104.386719 L 129.1875 122.257812 "/>
<path style="fill:none;stroke-width:1.2;stroke-linecap:butt;stroke-linejoin:miter;stroke:rgb(0%,0%,0%);stroke-opacity:1;stroke-miterlimit:10;" d="M 129.1875 122.257812 L 124.117188 131.347656 "/>
<path style="fill:none;stroke-width:1.2;stroke-linecap:butt;stroke-linejoin:miter;stroke:rgb(100%,0%,0%);stroke-opacity:1;stroke-miterlimit:10;" d="M 124.117188 131.347656 L 119.050781 140.441406 "/>
<path style="fill:none;stroke-width:1.2;stroke-linecap:butt;stroke-linejoin:miter;stroke:rgb(0%,0%,0%);stroke-opacity:1;stroke-miterlimit:10;" d="M 129.1875 122.257812 L 150 121.945312 "/>
<path style=" stroke:none;fill-rule:nonzero;fill:rgb(100%,100%,100%);fill-opacity:1;" d="M 115.050781 134.941406 L 123.050781 134.941406 L 123.050781 145.941406 L 115.050781 145.941406 Z M 115.050781 134.941406 "/>
<g style="fill:rgb(100%,0%,0%);fill-opacity:1;">
  <use xlink:href="#glyph0-1" x="115.050781" y="143.604492"/>
</g>
<path style="fill:none;stroke-width:1.2;stroke-linecap:butt;stroke-linejoin:miter;stroke:rgb(0%,0%,0%);stroke-opacity:1;stroke-miterlimit:10;" d="M 150 121.945312 L 170.8125 121.632812 "/>
<path style="fill:none;stroke-width:1.2;stroke-linecap:butt;stroke-linejoin:miter;stroke:rgb(0%,0%,0%);stroke-opacity:1;stroke-miterlimit:10;" d="M 152.15625 126.8125 L 168.804688 126.5625 "/>
<path style="fill:none;stroke-width:1.2;stroke-linecap:butt;stroke-linejoin:miter;stroke:rgb(0%,0%,0%);stroke-opacity:1;stroke-miterlimit:10;" d="M 152.007812 117.015625 L 168.660156 116.765625 "/>
<path style="fill:none;stroke-width:1.2;stroke-linecap:butt;stroke-linejoin:miter;stroke:rgb(0%,0%,0%);stroke-opacity:1;stroke-miterlimit:10;" d="M 170.8125 121.632812 L 191.628906 121.320312 "/>
<path style="fill:none;stroke-width:1.2;stroke-linecap:butt;stroke-linejoin:miter;stroke:rgb(0%,0%,0%);stroke-opacity:1;stroke-miterlimit:10;" d="M 191.628906 121.320312 L 202.308594 139.1875 "/>
<path style="fill:none;stroke-width:1.2;stroke-linecap:butt;stroke-linejoin:miter;stroke:rgb(0%,0%,0%);stroke-opacity:1;stroke-miterlimit:10;" d="M 202.308594 139.1875 L 223.121094 138.875 "/>
<path style="fill:none;stroke-width:1.2;stroke-linecap:butt;stroke-linejoin:miter;stroke:rgb(0%,0%,0%);stroke-opacity:1;stroke-miterlimit:10;" d="M 223.121094 138.875 L 233.800781 156.746094 "/>
<path style="fill:none;stroke-width:1.2;stroke-linecap:butt;stroke-linejoin:miter;stroke:rgb(0%,0%,0%);stroke-opacity:1;stroke-miterlimit:10;" d="M 228.394531 138.148438 L 236.9375 152.445312 "/>
<path style="fill:none;stroke-width:1.2;stroke-linecap:butt;stroke-linejoin:miter;stroke:rgb(0%,0%,0%);stroke-opacity:1;stroke-miterlimit:10;" d="M 233.257812 120.695312 L 223.121094 138.875 "/>
<path style="fill:none;stroke-width:1.2;stroke-linecap:butt;stroke-linejoin:miter;stroke:rgb(0%,0%,0%);stroke-opacity:1;stroke-miterlimit:10;" d="M 233.800781 156.746094 L 254.613281 156.433594 "/>
<path style="fill:none;stroke-width:1.2;stroke-linecap:butt;stroke-linejoin:miter;stroke:rgb(0%,0%,0%);stroke-opacity:1;stroke-miterlimit:10;" d="M 254.613281 156.433594 L 264.75 138.25 "/>
<path style="fill:none;stroke-width:1.2;stroke-linecap:butt;stroke-linejoin:miter;stroke:rgb(0%,0%,0%);stroke-opacity:1;stroke-miterlimit:10;" d="M 251.347656 152.230469 L 259.457031 137.683594 "/>
<path style="fill:none;stroke-width:1.2;stroke-linecap:butt;stroke-linejoin:miter;stroke:rgb(0%,0%,0%);stroke-opacity:1;stroke-miterlimit:10;" d="M 264.75 138.25 L 254.070312 120.382812 "/>
<path style="fill:none;stroke-width:1.2;stroke-linecap:butt;stroke-linejoin:miter;stroke:rgb(0%,0%,0%);stroke-opacity:1;stroke-miterlimit:10;" d="M 254.070312 120.382812 L 233.257812 120.695312 "/>
<path style="fill:none;stroke-width:1.2;stroke-linecap:butt;stroke-linejoin:miter;stroke:rgb(0%,0%,0%);stroke-opacity:1;stroke-miterlimit:10;" d="M 252.0625 125.308594 L 235.414062 125.558594 "/>
<path style="fill:none;stroke-width:1.2;stroke-linecap:butt;stroke-linejoin:miter;stroke:rgb(100%,0%,0%);stroke-opacity:1;stroke-miterlimit:10;" d="M 66.742188 123.195312 L 61.402344 114.261719 "/>
<path style="fill:none;stroke-width:1.2;stroke-linecap:butt;stroke-linejoin:miter;stroke:rgb(0%,0%,0%);stroke-opacity:1;stroke-miterlimit:10;" d="M 61.402344 114.261719 L 56.0625 105.328125 "/>
<path style=" stroke:none;fill-rule:nonzero;fill:rgb(100%,100%,100%);fill-opacity:1;" d="M 62.742188 117.695312 L 70.742188 117.695312 L 70.742188 128.695312 L 62.742188 128.695312 Z M 62.742188 117.695312 "/>
<g style="fill:rgb(100%,0%,0%);fill-opacity:1;">
  <use xlink:href="#glyph0-1" x="62.742188" y="126.358398"/>
</g>
<path style="fill:none;stroke-width:1.2;stroke-linecap:butt;stroke-linejoin:miter;stroke:rgb(0%,0%,0%);stroke-opacity:1;stroke-miterlimit:10;" d="M 58.203125 106.519531 L 63.273438 97.429688 "/>
<path style="fill:none;stroke-width:1.2;stroke-linecap:butt;stroke-linejoin:miter;stroke:rgb(100%,0%,0%);stroke-opacity:1;stroke-miterlimit:10;" d="M 63.273438 97.429688 L 68.339844 88.335938 "/>
<path style="fill:none;stroke-width:1.2;stroke-linecap:butt;stroke-linejoin:miter;stroke:rgb(0%,0%,0%);stroke-opacity:1;stroke-miterlimit:10;" d="M 53.925781 104.132812 L 58.992188 95.042969 "/>
<path style="fill:none;stroke-width:1.2;stroke-linecap:butt;stroke-linejoin:miter;stroke:rgb(100%,0%,0%);stroke-opacity:1;stroke-miterlimit:10;" d="M 58.992188 95.042969 L 64.0625 85.953125 "/>
<path style="fill:none;stroke-width:1.2;stroke-linecap:butt;stroke-linejoin:miter;stroke:rgb(0%,0%,0%);stroke-opacity:1;stroke-miterlimit:10;" d="M 56.0625 105.328125 L 35.25 105.640625 "/>
<path style=" stroke:none;fill-rule:nonzero;fill:rgb(100%,100%,100%);fill-opacity:1;" d="M 62.199219 81.644531 L 70.199219 81.644531 L 70.199219 92.644531 L 62.199219 92.644531 Z M 62.199219 81.644531 "/>
<g style="fill:rgb(100%,0%,0%);fill-opacity:1;">
  <use xlink:href="#glyph0-1" x="62.199219" y="90.307617"/>
</g>
</g>
</svg>

<svg xmlns="http://www.w3.org/2000/svg" xmlns:xlink="http://www.w3.org/1999/xlink" width="300pt" height="300pt" viewBox="0 0 300 300"><defs><symbol overflow="visible"><path d="M.453 1.594v-7.938h4.5v7.938zm.5-.5h3.5v-6.938h-3.5zm0 0"/></symbol><symbol overflow="visible" id="a"><path d="M3.547-5.953c-.65 0-1.164.242-1.547.72-.375.48-.563 1.13-.563 1.952 0 .835.188 1.49.563 1.967.383.48.898.72 1.547.72.644 0 1.156-.24 1.53-.72.376-.476.564-1.132.564-1.968 0-.822-.187-1.474-.562-1.954-.375-.477-.887-.72-1.53-.72zm0-.734c.914 0 1.648.312 2.203.937.55.617.828 1.438.828 2.47 0 1.042-.277 1.87-.828 2.483-.555.617-1.29.922-2.203.922-.93 0-1.668-.305-2.22-.922C.774-1.41.5-2.237.5-3.28c0-1.033.273-1.853.828-2.47.55-.625 1.29-.938 2.22-.938zm0 0"/></symbol></defs><g><path fill="#fff" d="M0 0h300v300H0z"/><path d="M99.316 212.855l-10.675-17.87M88.602 192.54l-10.407.155" stroke-width="1.2" stroke="#000" stroke-miterlimit="10" fill="none"/><path d="M78.195 192.695l-10.406.157" stroke-width="1.2" stroke="#f00" stroke-miterlimit="10" fill="none"/><path d="M88.676 197.434l-10.406.156" stroke-width="1.2" stroke="#000" stroke-miterlimit="10" fill="none"/><path d="M78.27 197.59l-10.407.156" stroke-width="1.2" stroke="#f00" stroke-miterlimit="10" fill="none"/><path d="M88.64 194.984l5.067-9.09" stroke-width="1.2" stroke="#000" stroke-miterlimit="10" fill="none"/><path d="M93.707 185.895l5.07-9.09" stroke-width="1.2" stroke="#f00" stroke-miterlimit="10" fill="none"/><path d="M59.824 189.8h8v11h-8zm0 0" fill="#fff"/><use xlink:href="#a" x="59.824" y="198.464" fill="#f00"/><path d="M98.777 176.805l-5.34-8.934" stroke-width="1.2" stroke="#f00" stroke-miterlimit="10" fill="none"/><path d="M93.438 167.87l-5.34-8.936" stroke-width="1.2" stroke="#000" stroke-miterlimit="10" fill="none"/><path d="M94.777 171.305h8v11h-8zm0 0" fill="#fff"/><use xlink:href="#a" x="94.777" y="179.968" fill="#f00"/><path d="M88.098 158.934l10.136-18.18M98.234 140.754l-10.675-17.87" stroke-width="1.2" stroke="#000" stroke-miterlimit="10" fill="none"/><path d="M119.05 140.44l-10.41.158" stroke-width="1.2" stroke="#f00" stroke-miterlimit="10" fill="none"/><path d="M108.64 140.598l-10.406.156M87.56 122.883L97.69 104.7M87.56 122.883l-10.412.156" stroke-width="1.2" stroke="#000" stroke-miterlimit="10" fill="none"/><path d="M77.148 123.04l-10.406.155" stroke-width="1.2" stroke="#f00" stroke-miterlimit="10" fill="none"/><path d="M97.69 104.7l20.818-.313M99.848 109.566l16.652-.25M118.508 104.387l10.68 17.87M129.188 122.258l-5.07 9.09" stroke-width="1.2" stroke="#000" stroke-miterlimit="10" fill="none"/><path d="M124.117 131.348l-5.066 9.093" stroke-width="1.2" stroke="#f00" stroke-miterlimit="10" fill="none"/><path d="M129.188 122.258l20.812-.313" stroke-width="1.2" stroke="#000" stroke-miterlimit="10" fill="none"/><path d="M115.05 134.94h8v11h-8zm0 0" fill="#fff"/><use xlink:href="#a" x="115.051" y="143.604" fill="#f00"/><path d="M150 121.945l20.813-.312M152.156 126.813l16.65-.25M152.008 117.016l16.652-.25M170.813 121.633l20.816-.313M191.63 121.32l10.68 17.868M202.31 139.188l20.81-.313M223.12 138.875l10.68 17.87M228.395 138.148l8.542 14.297M233.258 120.695l-10.137 18.18M233.8 156.746l20.813-.312M254.613 156.434l10.137-18.184M251.348 152.23l8.11-14.546M264.75 138.25l-10.68-17.867M254.07 120.383l-20.812.312M252.063 125.31l-16.65.25" stroke-width="1.2" stroke="#000" stroke-miterlimit="10" fill="none"/><path d="M66.742 123.195l-5.34-8.933" stroke-width="1.2" stroke="#f00" stroke-miterlimit="10" fill="none"/><path d="M61.402 114.262l-5.34-8.934" stroke-width="1.2" stroke="#000" stroke-miterlimit="10" fill="none"/><path d="M62.742 117.695h8v11h-8zm0 0" fill="#fff"/><use xlink:href="#a" x="62.742" y="126.358" fill="#f00"/><path d="M58.203 106.52l5.07-9.09" stroke-width="1.2" stroke="#000" stroke-miterlimit="10" fill="none"/><path d="M63.273 97.43l5.067-9.094" stroke-width="1.2" stroke="#f00" stroke-miterlimit="10" fill="none"/><path d="M53.926 104.133l5.066-9.09" stroke-width="1.2" stroke="#000" stroke-miterlimit="10" fill="none"/><path d="M58.992 95.043l5.07-9.09" stroke-width="1.2" stroke="#f00" stroke-miterlimit="10" fill="none"/><path d="M56.063 105.328l-20.813.313" stroke-width="1.2" stroke="#000" stroke-miterlimit="10" fill="none"/><path d="M62.2 81.645h8v11h-8zm0 0" fill="#fff"/><use xlink:href="#a" x="62.199" y="90.308" fill="#f00"/></g></svg>
